X: 41457
T: Two Pint Cup, The
R: slip jig
M: 9/8
K: Amajor
cAE EAc ecA|fdA Adf e2d|cAE EAc ecA|1 dBG EFG A2B:|2 dBG EFG Ace||
agf e2a c2e|fdA Adf e2e|agf e2c A2c|dBG EFG Ace:|

